!!!SOCIAL_FUNCTION:	songs of principal social dances with corn dance
!!!PDT:	1956
!!!OTL: No_69_Alligator_Dance_Song_(e).krn
!!!LANG: Non-Tone
!!!LING_GROUP: Muskogean
!!!REG: Florida
**kern
*staff1
=1-
*clefF4
*k[f#]
*M2/4
2B\
=2||
*M3/4
8B\L
8B\J
4B\
4B\
=3||
*M2/4
[2B\
=4
8B\L]
8A\J
4G\
=5||
*M3/4
8B\L
8B\J
4B\
4A\
=6
8.G\L
16E\Jk
4E\
8E\
8r
=7
8E\L
8E\J
4E\
4E\
=8
8.G\L
16E\Jk
4E\
4E\
=9
8B\L
8B\J
4B\
4A\
=10||
*M4/4
8.G\L
16E\Jk
4E\
4E\
4r
=11||
*M3/4
8E\L
8E\J
4E\
4E\
=12
8.G\L
16E\Jk
4E\
8E\
8r
=13||
*M2/4
4B\
4r
=14
2B\
==
*-
